archdroid-icon-theme/Archdroid-KellyGreen/apps/scalable/gnome-inhibit-applet.svg

<?xml version="1.0" encoding="UTF-8" standalone="no"?>
<svg
   xmlns:dc="http://purl.org/dc/elements/1.1/"
   xmlns:cc="http://creativecommons.org/ns#"
   xmlns:rdf="http://www.w3.org/1999/02/22-rdf-syntax-ns#"
   xmlns:svg="http://www.w3.org/2000/svg"
   xmlns="http://www.w3.org/2000/svg"
   xmlns:sodipodi="http://sodipodi.sourceforge.net/DTD/sodipodi-0.dtd"
   xmlns:inkscape="http://www.inkscape.org/namespaces/inkscape"
   fill="#00C853"
   width="48"
   height="48"
   viewBox="0 0 48 48"
   id="svg2"
   version="1.1"
   inkscape:version="0.91 r13725"
   sodipodi:docname="system-suspend.svg">
  <metadata
     id="metadata10">
    <rdf:RDF>
      <cc:Work
         rdf:about="">
        <dc:format>image/svg+xml</dc:format>
        <dc:type
           rdf:resource="http://purl.org/dc/dcmitype/StillImage" />
        <dc:title />
      </cc:Work>
    </rdf:RDF>
  </metadata>
  <defs
     id="defs8" />
  <sodipodi:namedview
     pagecolor="#ffffff"
     bordercolor="#666666"
     borderopacity="1"
     objecttolerance="10"
     gridtolerance="10"
     guidetolerance="10"
     inkscape:pageopacity="0"
     inkscape:pageshadow="2"
     inkscape:window-width="1366"
     inkscape:window-height="713"
     id="namedview6"
     showgrid="false"
     inkscape:zoom="6.532767489822858"
     inkscape:cx="22.36064136885957"
     inkscape:cy="11.69416977905514"
     inkscape:window-x="0"
     inkscape:window-y="30"
     inkscape:window-maximized="1"
     inkscape:current-layer="svg2"
     inkscape:snap-bbox="true"
     inkscape:bbox-nodes="true"
     inkscape:snap-page="true"
     inkscape:object-paths="true"
     inkscape:snap-intersection-paths="true"
     inkscape:object-nodes="true" />
  <path
     d="M 31 4 C 25.85340756397743 4 21.176217833605 5.957522574811279 17.6328125 9.1484375 L 24.611328125 16.126953125 C 26.89523936328211 10.80630707754034 31.42298353094199 6.673484389931925 37 4.919921875 C 35.11 4.319921875000002 33.09000000000001 4 31 4 z M 8.828125 6 L 6 8.828125 L 12.84375 15.671875 C 11.67103255329733 18.20731313751027 11 21.02056692855433 11 24 C 11 35.05 19.95 44 31 44 C 33.09000000000001 44.00000000000001 35.11 43.670078125 37 43.080078125 C 29.4804406634625 40.71572839526257 23.87871858134931 34.02515417127596 23.1015625 25.9296875 L 41.35546875 44.18359375 L 44.18359375 41.35546875 L 23.31640625 20.48828125 L 14.94140625 12.11328125 L 8.828125 6 z "
     id="path4" />
</svg>

<svg xmlns="http://www.w3.org/2000/svg" fill="#00C853" viewBox="0 0 48 48"><path d="m31 4c-5.147 0-9.824 1.958-13.367 5.148l6.979 6.979c2.284-5.321 6.812-9.453 12.389-11.207-1.89-.6-3.91-.92-6-.92m-22.17 2l-2.828 2.828 6.844 6.844c-1.173 2.535-1.844 5.349-1.844 8.328 0 11.05 8.95 20 20 20 2.09 0 4.11-.33 6-.92-7.52-2.364-13.12-9.05-13.898-17.15l18.254 18.254 2.828-2.828-20.867-20.867-8.375-8.375-6.113-6.113"/></svg>
